assets/images/simple-illustrations/simple-illustration__bankcoin.svg

<svg width="48" height="48" viewBox="0 0 48 48" fill="none" xmlns="http://www.w3.org/2000/svg">
<path d="M41.1934 15.5699L22.4056 1.78442L4.27308 15.6515L4.60195 19.5881V36.8996H3.78101V39.7729H11.083V38.2942H18.7138V39.6889H26.4238V38.2942H33.8098V39.9361H41.3566V37.1469H40.5356V19.1801L41.1934 15.5699Z" fill="#B0D9FF"/>
<path d="M10.591 19.2616H4.60205V36.818H10.591V19.2616Z" fill="#E5FAFE"/>
<path d="M25.3604 19.5063H19.6162V37.0627H25.3604V19.5063Z" fill="#E5FAFE"/>
<path d="M40.5381 19.588H34.7124V36.8996H40.5381V19.588Z" fill="#E5FAFE"/>
<path d="M10.5907 30.829H19.6162V19.5064L19.1241 15.733H11.0012L10.425 19.8353L10.5907 30.829Z" fill="#5AB0FF"/>
<path d="M25.5236 30.829H34.5466V19.5064L34.0545 15.733H25.9316L25.3579 19.8353L25.5236 30.829Z" fill="#5AB0FF"/>
<path d="M12.9426 30.693H17.3194V23.8015C17.3194 23.8015 17.1562 21.5587 15.1854 21.5587C13.2146 21.5587 13.1058 23.9647 13.1058 23.9647L12.9426 30.693V30.693Z" fill="#002140"/>
<path d="M27.8284 30.6361L32.084 30.693V23.8015C32.084 23.8015 31.9208 21.5587 29.95 21.5587C27.9792 21.5587 27.8704 23.9647 27.8704 23.9647L27.8259 30.6361H27.8284Z" fill="#002140"/>
<path d="M13.2739 13.107H31.9801L22.4873 5.31299L13.2739 13.107Z" fill="#8DC8FF"/>
<path d="M4.11938 15.6217H41.0372L22.5783 1.59143L4.11938 15.6217Z" stroke="#002140" stroke-width="0.823529" stroke-linecap="round" stroke-linejoin="round"/>
<path d="M4.11938 15.6217C4.11938 15.6217 4.61146 17.7557 4.61146 19.4767H10.4347C10.4347 17.7532 10.9268 15.6217 10.9268 15.6217" stroke="#002140" stroke-width="0.823529" stroke-linecap="round" stroke-linejoin="round"/>
<path d="M4.61157 19.4767V36.7882" stroke="#002140" stroke-width="0.823529" stroke-linecap="round" stroke-linejoin="round"/>
<path d="M10.4351 19.4767V36.7066" stroke="#002140" stroke-width="0.823529" stroke-linecap="round" stroke-linejoin="round"/>
<path d="M7.61841 19.724V36.6251" stroke="#002140" stroke-width="0.823529" stroke-linecap="round" stroke-linejoin="round"/>
<path d="M11.2832 36.9861H3.82544V39.7209H11.2832V36.9861Z" stroke="#002140" stroke-width="0.823529" stroke-linecap="round" stroke-linejoin="round"/>
<path d="M34.1462 15.6217C34.1462 15.6217 34.6383 17.7557 34.6383 19.4767H40.4641C40.4641 17.7532 40.9561 15.6217 40.9561 15.6217" stroke="#002140" stroke-width="0.823529" stroke-linecap="round" stroke-linejoin="round"/>
<path d="M34.6379 19.4767V36.7882" stroke="#002140" stroke-width="0.823529" stroke-linecap="round" stroke-linejoin="round"/>
<path d="M40.4636 19.4767V36.7066" stroke="#002140" stroke-width="0.823529" stroke-linecap="round" stroke-linejoin="round"/>
<path d="M37.6477 19.724V36.6251" stroke="#002140" stroke-width="0.823529" stroke-linecap="round" stroke-linejoin="round"/>
<path d="M41.312 36.9861H33.8542V39.7209H41.312V36.9861Z" stroke="#002140" stroke-width="0.823529" stroke-linecap="round" stroke-linejoin="round"/>
<path d="M19.1738 15.6217C19.1738 15.6217 19.6659 17.7557 19.6659 19.4767H25.4916C25.4916 17.7532 25.9837 15.6217 25.9837 15.6217" fill="#008C59"/>
<path d="M19.1738 15.6217C19.1738 15.6217 19.6659 17.7557 19.6659 19.4767H25.4916C25.4916 17.7532 25.9837 15.6217 25.9837 15.6217" stroke="#002140" stroke-width="0.823529" stroke-linecap="round" stroke-linejoin="round"/>
<path d="M19.6658 19.4767V36.7882" stroke="#002140" stroke-width="0.823529" stroke-linecap="round" stroke-linejoin="round"/>
<path d="M25.4917 19.4767V36.7066" stroke="#002140" stroke-width="0.823529" stroke-linecap="round" stroke-linejoin="round"/>
<path d="M22.6753 19.724V36.6251" stroke="#002140" stroke-width="0.823529" stroke-linecap="round" stroke-linejoin="round"/>
<path d="M26.3374 36.9861H18.8796V39.7209H26.3374V36.9861Z" fill="#085239" stroke="#002140" stroke-width="0.823529" stroke-linecap="round" stroke-linejoin="round"/>
<path d="M11.3379 38.225H18.8797" stroke="#002140" stroke-width="0.823529" stroke-linecap="round" stroke-linejoin="round"/>
<path d="M26.7622 38.225H33.854" stroke="#002140" stroke-width="0.823529" stroke-linecap="round" stroke-linejoin="round"/>
<path d="M10.6824 34.4911H19.379" stroke="#002140" stroke-width="0.823529" stroke-linecap="round" stroke-linejoin="round"/>
<path d="M10.6824 30.7994H19.379" stroke="#002140" stroke-width="0.823529" stroke-linecap="round" stroke-linejoin="round"/>
<path d="M25.6152 34.4911H34.3118" stroke="#002140" stroke-width="0.823529" stroke-linecap="round" stroke-linejoin="round"/>
<path d="M25.6152 30.7994H34.3118" stroke="#002140" stroke-width="0.823529" stroke-linecap="round" stroke-linejoin="round"/>
<path d="M17.3265 30.7177V23.7026C17.3265 22.5008 16.3523 21.5291 15.153 21.5291C13.9513 21.5291 12.9795 22.5033 12.9795 23.7026V30.6361" stroke="#002140" stroke-width="0.823529" stroke-linecap="round" stroke-linejoin="round"/>
<path d="M27.8284 30.6361V23.7026C27.8284 22.5008 28.8026 21.5291 30.0019 21.5291C31.2036 21.5291 32.1754 22.5033 32.1754 23.7026V30.7177" stroke="#002140" stroke-width="0.823529" stroke-linecap="round" stroke-linejoin="round"/>
<path d="M38.5015 44.6606C42.8067 44.6606 46.2967 41.1706 46.2967 36.8654C46.2967 32.5602 42.8067 29.0702 38.5015 29.0702C34.1963 29.0702 30.7063 32.5602 30.7063 36.8654C30.7063 41.1706 34.1963 44.6606 38.5015 44.6606Z" fill="#E4BC07"/>
<path d="M37.9064 29.1409C37.9064 29.1409 32.6805 29.0279 30.8194 35.2491C31.1817 35.5385 31.6523 35.7008 32.1088 35.6208C32.5652 35.5408 32.9841 35.3055 33.3535 35.0208C33.6829 34.7667 33.977 34.4679 34.2264 34.1338C34.5911 33.6491 34.8758 33.0773 35.3817 32.7408C36.0146 32.3173 36.8617 32.3503 37.5158 31.9597C37.9746 31.6844 38.304 31.202 38.3934 30.675C38.4828 30.1479 38.2522 29.5503 37.9087 29.1409H37.9064Z" fill="#FEE45E"/>
<path d="M38.3603 44.7971C42.6915 44.7971 46.2026 41.286 46.2026 36.9548C46.2026 32.6237 42.6915 29.1125 38.3603 29.1125C34.0292 29.1125 30.5181 32.6237 30.5181 36.9548C30.5181 41.286 34.0292 44.7971 38.3603 44.7971Z" stroke="#002140" stroke-width="0.823521" stroke-linecap="round" stroke-linejoin="round"/>
<path d="M38.372 43.1666C41.8364 43.1666 44.6449 40.3581 44.6449 36.8937C44.6449 33.4293 41.8364 30.6208 38.372 30.6208C34.9076 30.6208 32.0991 33.4293 32.0991 36.8937C32.0991 40.3581 34.9076 43.1666 38.372 43.1666Z" stroke="#D18000" stroke-width="0.823521" stroke-miterlimit="10"/>
</svg>

<svg xmlns="http://www.w3.org/2000/svg" width="48" height="48" fill="none" viewBox="0 0 48 48"><path fill="#b0d9ff" d="M41.193 15.57 22.406 1.784 4.273 15.652l.329 3.936V36.9h-.821v2.873h7.302v-1.479h7.63v1.395h7.71v-1.395h7.387v1.642h7.547v-2.79h-.821V19.18z"/><path fill="#e5fafe" d="M10.591 19.262H4.602v17.556h5.989zm14.769.244h-5.744v17.557h5.744zm15.178.082h-5.826V36.9h5.826z"/><path fill="#5ab0ff" d="M10.59 30.829h9.026V19.506l-.492-3.773h-8.123l-.576 4.102zm14.934 0h9.023V19.506l-.492-3.773h-8.123l-.574 4.102z"/><path fill="#002140" d="M12.943 30.693h4.376v-6.892s-.163-2.242-2.134-2.242-2.08 2.406-2.08 2.406zm14.885-.057 4.256.057v-6.892s-.163-2.242-2.134-2.242-2.08 2.406-2.08 2.406l-.044 6.671z"/><path fill="#8dc8ff" d="M13.274 13.107H31.98l-9.493-7.794z"/><path stroke="#002140" stroke-linecap="round" stroke-linejoin="round" stroke-width=".824" d="M4.12 15.622h36.917L22.578 1.592zm0 0s.491 2.134.491 3.855h5.824c0-1.724.492-3.855.492-3.855m-6.315 3.855v17.311m5.823-17.311v17.23M7.618 19.724v16.901m3.665.361H3.825v2.735h7.458zm22.863-21.364s.492 2.134.492 3.855h5.826c0-1.724.492-3.855.492-3.855m-6.318 3.855v17.311m5.826-17.311v17.23m-2.816-16.983v16.901m3.664.361h-7.458v2.735h7.458z"/><path fill="#008c59" d="M19.174 15.622s.492 2.134.492 3.855h5.826c0-1.724.492-3.855.492-3.855"/><path stroke="#002140" stroke-linecap="round" stroke-linejoin="round" stroke-width=".824" d="M19.174 15.622s.492 2.134.492 3.855h5.826c0-1.724.492-3.855.492-3.855m-6.318 3.855v17.311m5.826-17.311v17.23m-2.817-16.983v16.901"/><path fill="#085239" stroke="#002140" stroke-linecap="round" stroke-linejoin="round" stroke-width=".824" d="M26.337 36.986H18.88v2.735h7.457z"/><path stroke="#002140" stroke-linecap="round" stroke-linejoin="round" stroke-width=".824" d="M11.338 38.225h7.542m7.882 0h7.092m-23.172-3.734h8.697M10.682 30.8h8.697m6.236 3.691h8.697M25.615 30.8h8.697m-16.985-.082v-7.015a2.173 2.173 0 1 0-4.348 0v6.933m14.849 0v-6.933a2.173 2.173 0 1 1 4.347 0v7.015"/><path fill="#e4bc07" d="M38.502 44.66a7.795 7.795 0 1 0 0-15.59 7.795 7.795 0 0 0 0 15.59"/><path fill="#fee45e" d="M37.906 29.14s-5.225-.112-7.087 6.11c.363.288.833.45 1.29.37.456-.08.875-.314 1.244-.6.33-.253.624-.552.873-.886.365-.485.65-1.057 1.156-1.393.633-.424 1.48-.39 2.134-.781.459-.276.788-.758.877-1.285.09-.527-.14-1.125-.484-1.534z"/><path stroke="#002140" stroke-linecap="round" stroke-linejoin="round" stroke-width=".824" d="M38.36 44.797a7.842 7.842 0 1 0 0-15.684 7.842 7.842 0 0 0 0 15.684"/><path stroke="#d18000" stroke-miterlimit="10" stroke-width=".824" d="M38.372 43.167a6.273 6.273 0 1 0 0-12.546 6.273 6.273 0 0 0 0 12.546Z"/></svg>
